src/components/Icon/assets/username.svg

<svg width="24" height="24" viewBox="0 0 24 24" fill="none" xmlns="http://www.w3.org/2000/svg">
<path fill-rule="evenodd" clip-rule="evenodd" d="M10.3628 19.838C12.1002 20.18 13.8106 19.9733 15.3309 19.2762L16.1645 21.0942C14.2643 21.9654 12.1273 22.2237 9.97662 21.8004C5.88819 20.9958 2.81439 17.8084 2.13789 13.686C1.01727 6.85134 6.85133 1.01766 13.6856 2.1384C17.8978 2.82949 21.2631 6.25464 21.8869 10.4798C22.2103 12.6647 21.8313 14.8148 20.8345 16.69C20.1154 18.0411 18.4708 18.6123 17.0505 18.0352C16.2195 17.6988 15.5983 17.0182 15.3235 16.1975C14.3634 17.0686 13.1016 17.5981 11.7166 17.5981C8.69829 17.5981 6.26561 15.0846 6.26561 12.0001C6.26561 8.91489 8.69799 6.4021 11.7166 6.4021C13.0279 6.4021 14.2288 6.87658 15.1677 7.66627V7.2352H17.1677V15.2402C17.1677 15.6538 17.4185 16.0265 17.8022 16.1818C18.2849 16.3779 18.837 16.1862 19.0687 15.7508C19.8659 14.2511 20.1689 12.5323 19.9084 10.7723C19.4116 7.4069 16.7148 4.66212 13.3619 4.11202C7.87752 3.21265 3.21225 7.87763 4.11151 13.3623C4.65307 16.6624 7.09548 19.195 10.3628 19.838ZM15.1676 12.0001C15.1676 13.994 13.6149 15.5981 11.7166 15.5981C9.81775 15.5981 8.26561 13.9944 8.26561 12.0001C8.26561 10.0052 9.81738 8.4021 11.7166 8.4021C13.6152 8.4021 15.1676 10.0056 15.1676 12.0001Z" fill="#65676A"/>
</svg>

<svg xmlns="http://www.w3.org/2000/svg" width="24" height="24" viewBox="0 0 24 24">
    <path fill="#65676A" fill-rule="evenodd" d="M2.138 13.686C1.018 6.851 6.85 1.018 13.686 2.138c4.212.691 7.577 4.117 8.2 8.342.324 2.185-.055 4.335-1.052 6.21-.719 1.351-2.363 1.922-3.783 1.345-.832-.336-1.453-1.017-1.728-1.838-.959.871-2.221 1.401-3.606 1.401-3.019 0-5.451-2.513-5.451-5.598s2.432-5.598 5.45-5.598c1.312 0 2.513.475 3.452 1.265v-.432h2v8.005c0 .414.25.786.634.942.483.196 1.035.004 1.267-.431.797-1.5 1.1-3.219.84-4.979-.497-3.365-3.194-6.11-6.547-6.66-5.484-.9-10.15 3.766-9.25 9.25.541 3.3 2.983 5.833 6.25 6.476 1.738.342 3.449.135 4.969-.562l.833 1.818c-1.9.871-4.037 1.13-6.187.706-4.089-.804-7.163-3.992-7.84-8.114zm9.579-5.284c-1.9 0-3.451 1.603-3.451 3.598 0 1.994 1.552 3.598 3.45 3.598 1.899 0 3.452-1.604 3.452-3.598 0-1.994-1.553-3.598-3.451-3.598z"/>
</svg>
